Numix-Circle/48x48/apps/warspear.svg

<?xml version="1.0" encoding="UTF-8" standalone="no"?>
<svg
   xmlns:dc="http://purl.org/dc/elements/1.1/"
   xmlns:cc="http://creativecommons.org/ns#"
   xmlns:rdf="http://www.w3.org/1999/02/22-rdf-syntax-ns#"
   xmlns:svg="http://www.w3.org/2000/svg"
   xmlns="http://www.w3.org/2000/svg"
   xmlns:xlink="http://www.w3.org/1999/xlink"
   xmlns:sodipodi="http://sodipodi.sourceforge.net/DTD/sodipodi-0.dtd"
   xmlns:inkscape="http://www.inkscape.org/namespaces/inkscape"
   viewBox="0 0 48 48"
   id="svg2"
   version="1.1"
   inkscape:version="0.91 r13725"
   sodipodi:docname="warspear.svg">
  <metadata
     id="metadata49">
    <rdf:RDF>
      <cc:Work
         rdf:about="">
        <dc:format>image/svg+xml</dc:format>
        <dc:type
           rdf:resource="http://purl.org/dc/dcmitype/StillImage" />
      </cc:Work>
    </rdf:RDF>
  </metadata>
  <sodipodi:namedview
     pagecolor="#ffffff"
     bordercolor="#666666"
     borderopacity="1"
     objecttolerance="10"
     gridtolerance="10"
     guidetolerance="10"
     inkscape:pageopacity="0"
     inkscape:pageshadow="2"
     inkscape:window-width="1280"
     inkscape:window-height="998"
     id="namedview47"
     showgrid="true"
     inkscape:zoom="5.6568543"
     inkscape:cx="-1.9983203"
     inkscape:cy="23.71342"
     inkscape:window-x="0"
     inkscape:window-y="0"
     inkscape:window-maximized="1"
     inkscape:current-layer="svg2">
    <inkscape:grid
       type="xygrid"
       id="grid4188" />
  </sodipodi:namedview>
  <defs
     id="defs4">
    <linearGradient
       inkscape:collect="always"
       id="linearGradient4240">
      <stop
         style="stop-color:#e33500;stop-opacity:1;"
         offset="0"
         id="stop4242" />
      <stop
         style="stop-color:#e33500;stop-opacity:1"
         offset="1"
         id="stop4244" />
    </linearGradient>
    <linearGradient
       inkscape:collect="always"
       id="linearGradient4232">
      <stop
         style="stop-color:#258ed0;stop-opacity:1;"
         offset="0"
         id="stop4234" />
      <stop
         style="stop-color:#2e98da;stop-opacity:1"
         offset="1"
         id="stop4236" />
    </linearGradient>
    <clipPath
       id="clipPath6">
      <g
         transform="translate(0,-1004.3622)"
         id="g8">
        <path
           d="m -24 13 c 0 1.105 -0.672 2 -1.5 2 -0.828 0 -1.5 -0.895 -1.5 -2 0 -1.105 0.672 -2 1.5 -2 0.828 0 1.5 0.895 1.5 2 z"
           transform="matrix(15.333333,0,0,11.5,414.99999,878.8622)"
           fill="#1890d0"
           id="path10" />
      </g>
    </clipPath>
    <clipPath
       id="clipPath12">
      <g
         transform="translate(0,-1004.3622)"
         id="g14">
        <path
           d="m -24 13 c 0 1.105 -0.672 2 -1.5 2 -0.828 0 -1.5 -0.895 -1.5 -2 0 -1.105 0.672 -2 1.5 -2 0.828 0 1.5 0.895 1.5 2 z"
           transform="matrix(15.333333,0,0,11.5,414.99999,878.8622)"
           fill="#1890d0"
           id="path16" />
      </g>
    </clipPath>
    <linearGradient
       id="linearGradient3063"
       gradientUnits="userSpaceOnUse"
       gradientTransform="matrix(0,-1,1,0,-1.5e-6,47.999998)"
       x1="1"
       x2="47">
      <stop
         stop-color="#c22428"
         stop-opacity="1"
         id="stop19" />
      <stop
         offset="1"
         stop-color="#d3272c"
         stop-opacity="1"
         id="stop21" />
    </linearGradient>
    <linearGradient
       inkscape:collect="always"
       xlink:href="#linearGradient4232"
       id="linearGradient4238"
       x1="24"
       y1="47"
       x2="24"
       y2="1"
       gradientUnits="userSpaceOnUse" />
    <linearGradient
       inkscape:collect="always"
       xlink:href="#linearGradient4240"
       id="linearGradient4246"
       x1="24"
       y1="47"
       x2="24"
       y2="1"
       gradientUnits="userSpaceOnUse" />
  </defs>
  <g
     id="g23">
    <path
       d="m 36.31 5 c 5.859 4.062 9.688 10.831 9.688 18.5 c 0 12.426 -10.07 22.5 -22.5 22.5 c -7.669 0 -14.438 -3.828 -18.5 -9.688 c 1.037 1.822 2.306 3.499 3.781 4.969 c 4.085 3.712 9.514 5.969 15.469 5.969 c 12.703 0 23 -10.298 23 -23 c 0 -5.954 -2.256 -11.384 -5.969 -15.469 c -1.469 -1.475 -3.147 -2.744 -4.969 -3.781 z m 4.969 3.781 c 3.854 4.113 6.219 9.637 6.219 15.719 c 0 12.703 -10.297 23 -23 23 c -6.081 0 -11.606 -2.364 -15.719 -6.219 c 4.16 4.144 9.883 6.719 16.219 6.719 c 12.703 0 23 -10.298 23 -23 c 0 -6.335 -2.575 -12.06 -6.719 -16.219 z"
       opacity="0.05"
       id="path25" />
    <path
       d="m 41.28 8.781 c 3.712 4.085 5.969 9.514 5.969 15.469 c 0 12.703 -10.297 23 -23 23 c -5.954 0 -11.384 -2.256 -15.469 -5.969 c 4.113 3.854 9.637 6.219 15.719 6.219 c 12.703 0 23 -10.298 23 -23 c 0 -6.081 -2.364 -11.606 -6.219 -15.719 z"
       opacity="0.1"
       id="path27" />
    <path
       d="m 31.25 2.375 c 8.615 3.154 14.75 11.417 14.75 21.13 c 0 12.426 -10.07 22.5 -22.5 22.5 c -9.708 0 -17.971 -6.135 -21.12 -14.75 a 23 23 0 0 0 44.875 -7 a 23 23 0 0 0 -16 -21.875 z"
       opacity="0.2"
       id="path29" />
  </g>
  <path
     d="M 24 1 L 24 47 C 36.703 47 47 36.703 47 24 C 47 11.297 36.703 1 24 1 z "
     fill="url(#linearGradient3063)"
     fill-opacity="1"
     id="path31"
     style="fill:url(#linearGradient4246);fill-opacity:1" />
  <path
     d="M 24 1 C 11.297 1 1 11.297 1 24 C 1 36.703 11.297 47 24 47 L 24 1 z "
     id="path33"
     style="fill:url(#linearGradient4238);fill-opacity:1"
     stroke="none"
     fill-rule="nonzero"
     fill-opacity="1"
     fill="#4a783d" />
  <path
     style="opacity:0.1;fill:#000000;fill-opacity:1;fill-rule:nonzero;stroke:none;stroke-width:30.89999962;stroke-linejoin:round;stroke-miterlimit:4;stroke-dasharray:none;stroke-opacity:1"
     d="M 25 7 C 24.63752 7.6417678 24.309721 8.2820604 24 8.921875 C 22.122072 12.801257 21.123487 16.648275 19.992188 20.5 C 20.604951 20.154098 21.093217 20.038097 21.476562 20.076172 C 21.923936 20.120602 22.219187 20.385709 22.394531 20.761719 C 22.462411 20.908277 22.517599 21.066938 22.548828 21.242188 C 22.554728 21.275157 22.553894 21.311968 22.558594 21.345703 C 22.579404 21.497544 22.589397 21.65555 22.585938 21.818359 C 22.584437 21.891809 22.576543 21.966395 22.570312 22.041016 C 22.558563 22.179498 22.538999 22.317908 22.511719 22.457031 C 22.498969 22.522271 22.488696 22.587641 22.472656 22.652344 C 22.422056 22.855605 22.360287 23.057384 22.279297 23.246094 C 22.078279 23.714474 21.872701 24.157102 21.662109 24.568359 C 21.561959 24.763623 21.460205 24.950495 21.355469 25.117188 C 21.308889 25.191447 21.262559 25.272682 21.214844 25.339844 C 21.178594 25.390774 21.142444 25.436034 21.105469 25.482422 C 21.012539 25.599298 20.916513 25.697437 20.818359 25.78125 C 20.783379 25.81104 20.750569 25.84993 20.714844 25.875 C 20.702794 25.8835 20.689874 25.888564 20.677734 25.896484 C 20.596664 25.949244 20.512999 25.989614 20.427734 26.015625 C 20.407774 26.021725 20.387398 26.02671 20.367188 26.03125 C 20.268387 26.05333 20.167636 26.061379 20.0625 26.042969 C 19.642572 25.969439 19.170016 25.556082 18.619141 24.644531 L 17 36 C 17.696136 34.916075 18.279903 33.817339 19.03125 32.771484 L 19.03125 32.769531 C 19.330878 32.352546 19.659112 31.944095 20.03125 31.548828 C 20.08075 31.496598 20.136327 31.446279 20.1875 31.394531 C 20.335447 31.243978 20.484808 31.095249 20.648438 30.949219 C 20.872348 30.750254 21.107756 30.554732 21.365234 30.365234 C 22.727548 29.362651 22.840255 30.426649 23 32 C 23.03375 32.332397 23.06822 32.666496 23.101562 33 C 23.212578 34.110393 23.248825 35.198164 22.789062 36.076172 C 22.729962 36.188771 22.658716 36.297095 22.582031 36.402344 L 22.580078 36.404297 C 22.423659 36.618526 22.2412 36.821286 22 37 L 23 38 L 23 40 L 23 46.974609 C 23.331898 46.988821 23.664602 47 24 47 C 25.017673 47 26.017268 46.926944 27 46.798828 L 27 40 L 27 38 L 28 37 C 26.715803 36.048491 26.74397 34.545001 26.898438 33 C 26.931777 32.666496 26.966248 32.332397 27 32 C 27.09984 31.016656 27.180891 30.232576 27.560547 30.027344 C 27.78834 29.904205 28.123898 29.989244 28.634766 30.365234 C 28.893009 30.555295 29.129032 30.751589 29.353516 30.951172 C 29.490111 31.073211 29.614713 31.198989 29.740234 31.324219 C 29.816714 31.400039 29.897882 31.473898 29.970703 31.550781 C 30.146155 31.737273 30.311791 31.927195 30.46875 32.119141 C 30.47195 32.123041 30.475316 32.126939 30.478516 32.130859 C 30.642447 32.33187 30.798672 32.536504 30.947266 32.742188 C 31.708949 33.796774 32.297343 34.905921 33 36 L 31.380859 24.644531 C 30.675578 25.811583 30.099123 26.157887 29.597656 26.021484 C 29.445161 25.980004 29.301869 25.884485 29.162109 25.761719 C 29.106699 25.712859 29.053687 25.651569 29 25.591797 C 28.884185 25.463535 28.771231 25.313111 28.662109 25.142578 C 28.618669 25.074248 28.573809 25.009369 28.53125 24.935547 C 28.46537 24.82199 28.402003 24.692887 28.337891 24.568359 C 28.127299 24.157102 27.921721 23.714474 27.720703 23.246094 C 27.640273 23.058689 27.579763 22.858052 27.529297 22.65625 C 27.514427 22.59654 27.502304 22.536755 27.490234 22.476562 C 27.460414 22.328373 27.439924 22.180733 27.427734 22.033203 C 27.422634 21.970563 27.415784 21.907543 27.414062 21.845703 C 27.408462 21.655518 27.417963 21.469968 27.445312 21.294922 C 27.453813 21.241382 27.470632 21.193983 27.482422 21.142578 C 27.510022 21.02084 27.545392 20.905509 27.591797 20.798828 C 27.744865 20.449978 27.994966 20.187893 28.371094 20.101562 C 28.773819 20.009132 29.310004 20.106062 30.007812 20.5 C 28.689923 16.013022 27.5603 11.532993 25 7 z "
     id="path4255" />
  <path
     style="opacity:1;fill:#c5904b;fill-opacity:1;fill-rule:nonzero;stroke:none;stroke-width:30.89999962;stroke-linejoin:round;stroke-miterlimit:4;stroke-dasharray:none;stroke-opacity:1"
     d="M 22 39 L 22 46.908203 C 22.659695 46.965073 23.325559 47 24 47 C 24.674441 47 25.340305 46.965074 26 46.908203 L 26 39 L 24 39 L 22 39 z "
     id="rect4190" />
  <g
     id="g43">
    <path
       d="m 40.03 7.531 c 3.712 4.084 5.969 9.514 5.969 15.469 0 12.703 -10.297 23 -23 23 c -5.954 0 -11.384 -2.256 -15.469 -5.969 4.178 4.291 10.01 6.969 16.469 6.969 c 12.703 0 23 -10.298 23 -23 0 -6.462 -2.677 -12.291 -6.969 -16.469 z"
       opacity="0.1"
       id="path45" />
  </g>
  <path
     style="opacity:1;fill:#c95de6;fill-opacity:1;fill-rule:nonzero;stroke:none;stroke-width:30.89999962;stroke-linejoin:round;stroke-miterlimit:4;stroke-dasharray:none;stroke-opacity:1"
     d="M 22 37 L 22 39 L 24 39 L 26 39 L 26 37 L 24 37 L 22 37 z "
     id="rect4192" />
  <path
     style="opacity:1;fill:#c5dbee;fill-opacity:1;fill-rule:evenodd;stroke:none;stroke-width:1px;stroke-linecap:butt;stroke-linejoin:miter;stroke-opacity:1"
     d="M 24 6 C 21.4397 10.532993 20.310072 15.013022 18.992188 19.5 C 21.574763 18.042151 21.999636 20.567678 21.279297 22.246094 C 20.335111 24.446082 19.365206 26.533801 17.619141 23.644531 L 16 35 C 17.262824 33.033708 18.132122 31.008751 20.365234 29.365234 C 21.727548 28.362604 21.840255 29.426649 22 31 C 22.033749 31.332397 22.068219 31.666496 22.101562 32 L 25.898438 32 C 25.931781 31.666496 25.966251 31.332397 26 31 C 26.159745 29.426649 26.272452 28.362604 27.634766 29.365234 C 29.867878 31.008751 30.737176 33.033708 32 35 L 30.380859 23.644531 C 28.634794 26.533801 27.664889 24.446082 26.720703 22.246094 C 26.000364 20.567678 26.425237 18.042151 29.007812 19.5 C 27.689927 15.013022 26.5603 10.532993 24 6 z M 22.166016 33.5 C 22.163119 33.568823 22.163535 33.639198 22.158203 33.707031 C 22.163422 33.639154 22.163226 33.568866 22.166016 33.5 z M 25.833984 33.5 C 25.836774 33.568866 25.836578 33.639154 25.841797 33.707031 C 25.836465 33.639198 25.836881 33.568823 25.833984 33.5 z M 22.125 33.964844 C 22.110237 34.075629 22.093654 34.185716 22.070312 34.292969 C 22.093397 34.18578 22.110466 34.075555 22.125 33.964844 z M 25.875 33.964844 C 25.889534 34.075555 25.906603 34.18578 25.929688 34.292969 C 25.906346 34.185716 25.889763 34.075629 25.875 33.964844 z M 22.001953 34.546875 C 21.97017 34.653311 21.931602 34.757572 21.888672 34.859375 C 21.931521 34.757313 21.970313 34.653594 22.001953 34.546875 z M 25.998047 34.546875 C 26.029687 34.653594 26.068479 34.757313 26.111328 34.859375 C 26.068398 34.757572 26.02983 34.653311 25.998047 34.546875 z M 21.791016 35.074219 C 21.730844 35.188702 21.658388 35.297401 21.580078 35.404297 C 21.657951 35.297652 21.731216 35.188417 21.791016 35.074219 z M 26.208984 35.074219 C 26.268784 35.188417 26.342049 35.297652 26.419922 35.404297 C 26.341612 35.297401 26.269156 35.188702 26.208984 35.074219 z M 21.460938 35.566406 C 21.329136 35.719878 21.179862 35.866734 21 36 C 21.180368 35.866359 21.329061 35.720411 21.460938 35.566406 z M 26.539062 35.566406 C 26.670939 35.720411 26.819632 35.866359 27 36 C 26.820138 35.866734 26.670864 35.719878 26.539062 35.566406 z "
     id="path4196" />
  <path
     style="fill:#a8c8e1;fill-opacity:1;fill-rule:evenodd;stroke:none;stroke-width:1px;stroke-linecap:butt;stroke-linejoin:miter;stroke-opacity:1"
     d="M 24 8 C 22.839721 11.756315 21.589276 15.10581 20.476562 19.076172 C 21.70888 19.19857 21.828722 20.965913 21.279297 22.246094 C 20.632997 23.751996 19.973584 25.202498 19.0625 25.042969 C 18.668947 27.061887 18.317284 29.268731 18.03125 31.771484 C 18.642883 30.920108 19.363133 30.102757 20.365234 29.365234 C 21.727548 28.362604 21.840255 29.426649 22 31 C 22.033749 31.332397 22.068219 31.666496 22.101562 32 L 25.898438 32 C 25.931781 31.666496 25.966251 31.332397 26 31 C 26.159745 29.426649 26.272452 28.362604 27.634766 29.365234 C 28.625335 30.09427 29.340015 30.901457 29.947266 31.742188 C 29.45758 29.475387 29.02716 27.248164 28.597656 25.021484 C 27.857642 24.820195 27.283508 23.557449 26.720703 22.246094 C 26.194999 21.021185 26.283344 19.351227 27.371094 19.101562 C 26.570263 15.61628 25.561955 11.992699 24 8 z "
     id="path4213" />
  <path
     style="opacity:1;fill:#c5904b;fill-opacity:1;fill-rule:nonzero;stroke:none;stroke-width:30.89999962;stroke-linejoin:round;stroke-miterlimit:4;stroke-dasharray:none;stroke-opacity:1"
     d="M 22.101562 32 C 22.256029 33.545001 22.284197 35.048491 21 36 L 22 37 L 26 37 L 27 36 C 25.715803 35.048491 25.743971 33.545001 25.898438 32 L 22.101562 32 z "
     id="rect4218" />
  <path
     style="fill:#f393dc;fill-opacity:1;fill-rule:evenodd;stroke:none;stroke-width:1px;stroke-linecap:butt;stroke-linejoin:miter;stroke-opacity:1"
     d="m 24,33 c -0.333333,0.666667 -1,1.548177 -1,2 0,1 0.536341,1.006974 1,1 0.463659,-0.007 1,0 1,-1 0,-0.417643 -0.666658,-1.333339 -1,-2 z"
     id="path4225"
     inkscape:connector-curvature="0"
     sodipodi:nodetypes="cczcc" />
</svg>

<svg xmlns="http://www.w3.org/2000/svg" viewBox="0 0 48 48"><defs><clipPath><g transform="translate(0,-1004.3622)"><path d="m -24 13 c 0 1.105 -0.672 2 -1.5 2 -0.828 0 -1.5 -0.895 -1.5 -2 0 -1.105 0.672 -2 1.5 -2 0.828 0 1.5 0.895 1.5 2 z" transform="matrix(15.333333,0,0,11.5,414.99999,878.8622)" fill="#1890d0"/></g></clipPath><clipPath><g transform="translate(0,-1004.3622)"><path d="m -24 13 c 0 1.105 -0.672 2 -1.5 2 -0.828 0 -1.5 -0.895 -1.5 -2 0 -1.105 0.672 -2 1.5 -2 0.828 0 1.5 0.895 1.5 2 z" transform="matrix(15.333333,0,0,11.5,414.99999,878.8622)" fill="#1890d0"/></g></clipPath><linearGradient id="linearGradient4238" y1="47" x2="0" y2="1" gradientUnits="userSpaceOnUse"><stop stop-color="#258ed0" stop-opacity="1"/><stop offset="1" stop-color="#2e98da" stop-opacity="1"/></linearGradient><linearGradient id="linearGradient4246" y1="47" x2="0" y2="1" gradientUnits="userSpaceOnUse"><stop stop-color="#e33500" stop-opacity="1"/><stop offset="1" stop-color="#e33500" stop-opacity="1"/></linearGradient></defs><g><path d="m 36.31 5 c 5.859 4.062 9.688 10.831 9.688 18.5 c 0 12.426 -10.07 22.5 -22.5 22.5 c -7.669 0 -14.438 -3.828 -18.5 -9.688 c 1.037 1.822 2.306 3.499 3.781 4.969 c 4.085 3.712 9.514 5.969 15.469 5.969 c 12.703 0 23 -10.298 23 -23 c 0 -5.954 -2.256 -11.384 -5.969 -15.469 c -1.469 -1.475 -3.147 -2.744 -4.969 -3.781 z m 4.969 3.781 c 3.854 4.113 6.219 9.637 6.219 15.719 c 0 12.703 -10.297 23 -23 23 c -6.081 0 -11.606 -2.364 -15.719 -6.219 c 4.16 4.144 9.883 6.719 16.219 6.719 c 12.703 0 23 -10.298 23 -23 c 0 -6.335 -2.575 -12.06 -6.719 -16.219 z" opacity="0.05"/><path d="m 41.28 8.781 c 3.712 4.085 5.969 9.514 5.969 15.469 c 0 12.703 -10.297 23 -23 23 c -5.954 0 -11.384 -2.256 -15.469 -5.969 c 4.113 3.854 9.637 6.219 15.719 6.219 c 12.703 0 23 -10.298 23 -23 c 0 -6.081 -2.364 -11.606 -6.219 -15.719 z" opacity="0.1"/><path d="m 31.25 2.375 c 8.615 3.154 14.75 11.417 14.75 21.13 c 0 12.426 -10.07 22.5 -22.5 22.5 c -9.708 0 -17.971 -6.135 -21.12 -14.75 a 23 23 0 0 0 44.875 -7 a 23 23 0 0 0 -16 -21.875 z" opacity="0.2"/></g><path d="M 24 1 L 24 47 C 36.703 47 47 36.703 47 24 C 47 11.297 36.703 1 24 1 z " fill="url(#linearGradient4246)" fill-opacity="1"/><path d="M 24 1 C 11.297 1 1 11.297 1 24 C 1 36.703 11.297 47 24 47 L 24 1 z " stroke="none" fill-rule="nonzero" fill-opacity="1" fill="url(#linearGradient4238)"/><path d="m 25 7 c -0.362 0.642 -0.69 1.282 -1 1.922 c -1.878 3.879 -2.877 7.726 -4.01 11.578 c 0.613 -0.346 1.101 -0.462 1.484 -0.424 c 0.447 0.044 0.743 0.31 0.918 0.686 c 0.068 0.147 0.123 0.305 0.154 0.48 c 0.006 0.033 0.005 0.07 0.001 0.104 c 0.021 0.152 0.031 0.31 0.027 0.473 c -0.002 0.073 -0.009 0.148 -0.016 0.223 c -0.012 0.138 -0.031 0.277 -0.059 0.416 c -0.013 0.065 -0.023 0.131 -0.039 0.195 c -0.051 0.203 -0.112 0.405 -0.193 0.594 c -0.201 0.468 -0.407 0.911 -0.617 1.322 c -0.1 0.195 -0.202 0.382 -0.307 0.549 c -0.047 0.074 -0.093 0.155 -0.141 0.223 c -0.036 0.051 -0.072 0.096 -0.109 0.143 c -0.093 0.117 -0.189 0.215 -0.287 0.299 c -0.035 0.03 -0.068 0.069 -0.104 0.094 c -0.012 0.009 -0.025 0.014 -0.037 0.021 c -0.081 0.053 -0.165 0.093 -0.25 0.119 c -0.02 0.006 -0.04 0.011 -0.061 0.016 c -0.099 0.022 -0.2 0.03 -0.305 0.012 c -0.42 -0.074 -0.892 -0.487 -1.443 -1.398 l -1.619 11.355 c 0.696 -1.084 1.28 -2.183 2.031 -3.229 l 0 -0.002 c 0.3 -0.417 0.628 -0.825 1 -1.221 c 0.049 -0.052 0.105 -0.103 0.156 -0.154 c 0.148 -0.151 0.297 -0.299 0.461 -0.445 c 0.224 -0.199 0.459 -0.394 0.717 -0.584 c 1.362 -1 1.475 0.061 1.635 1.635 c 0.034 0.332 0.068 0.666 0.102 1 c 0.111 1.11 0.147 2.198 -0.313 3.076 c -0.059 0.113 -0.13 0.221 -0.207 0.326 l -0.002 0.002 c -0.156 0.214 -0.339 0.417 -0.58 0.596 l 1 1 l 0 2 l 0 6.975 c 0.332 0.014 0.665 0.025 1 0.025 c 1.018 0 2.02 -0.073 3 -0.201 l 0 -6.799 l 0 -2 l 1 -1 c -1.284 -0.952 -1.256 -2.455 -1.102 -4 c 0.033 -0.334 0.068 -0.668 0.102 -1 c 0.1 -0.983 0.181 -1.767 0.561 -1.973 c 0.228 -0.123 0.563 -0.038 1.074 0.338 c 0.258 0.19 0.494 0.386 0.719 0.586 c 0.137 0.122 0.261 0.248 0.387 0.373 c 0.076 0.076 0.158 0.15 0.23 0.227 c 0.175 0.186 0.341 0.376 0.498 0.568 c 0.003 0.004 0.007 0.008 0.001 0.012 c 0.164 0.201 0.32 0.406 0.469 0.611 c 0.762 1.055 1.35 2.164 2.053 3.258 l -1.619 -11.355 c -0.705 1.167 -1.282 1.513 -1.783 1.377 c -0.152 -0.041 -0.296 -0.137 -0.436 -0.26 c -0.055 -0.049 -0.108 -0.11 -0.162 -0.17 c -0.116 -0.128 -0.229 -0.279 -0.338 -0.449 c -0.043 -0.068 -0.088 -0.133 -0.131 -0.207 c -0.066 -0.114 -0.129 -0.243 -0.193 -0.367 c -0.211 -0.411 -0.416 -0.854 -0.617 -1.322 c -0.08 -0.187 -0.141 -0.388 -0.191 -0.59 c -0.015 -0.06 -0.027 -0.119 -0.039 -0.18 c -0.03 -0.148 -0.05 -0.296 -0.063 -0.443 c -0.005 -0.063 -0.012 -0.126 -0.014 -0.188 c -0.006 -0.19 0.004 -0.376 0.031 -0.551 c 0.009 -0.054 0.025 -0.101 0.037 -0.152 c 0.028 -0.122 0.063 -0.237 0.109 -0.344 c 0.153 -0.349 0.403 -0.611 0.779 -0.697 c 0.403 -0.092 0.939 0.005 1.637 0.398 c -1.318 -4.487 -2.448 -8.967 -5.01 -13.5 z" opacity="0.1" fill="#000" fill-rule="nonzero" stroke="none" fill-opacity="1"/><path d="m 22 39 l 0 7.908 c 0.66 0.057 1.326 0.092 2 0.092 c 0.674 0 1.34 -0.035 2 -0.092 l 0 -7.908 l -2 0 l -2 0 z" opacity="1" fill="#c5904b" fill-rule="nonzero" stroke="none" fill-opacity="1"/><g><path d="m 40.03 7.531 c 3.712 4.084 5.969 9.514 5.969 15.469 0 12.703 -10.297 23 -23 23 c -5.954 0 -11.384 -2.256 -15.469 -5.969 4.178 4.291 10.01 6.969 16.469 6.969 c 12.703 0 23 -10.298 23 -23 0 -6.462 -2.677 -12.291 -6.969 -16.469 z" opacity="0.1"/></g><path d="m 22 37 l 0 2 l 2 0 l 2 0 l 0 -2 l -2 0 l -2 0 z" opacity="1" fill="#c95de6" fill-rule="nonzero" stroke="none" fill-opacity="1"/><path d="m 24 6 c -2.56 4.533 -3.69 9.01 -5.01 13.5 c 2.583 -1.458 3.01 1.068 2.287 2.746 c -0.944 2.2 -1.914 4.288 -3.66 1.398 l -1.619 11.355 c 1.263 -1.966 2.132 -3.991 4.365 -5.635 c 1.362 -1 1.475 0.061 1.635 1.635 c 0.034 0.332 0.068 0.666 0.102 1 l 3.797 0 c 0.033 -0.334 0.068 -0.668 0.102 -1 c 0.16 -1.573 0.272 -2.637 1.635 -1.635 c 2.233 1.644 3.102 3.668 4.365 5.635 l -1.619 -11.355 c -1.746 2.889 -2.716 0.802 -3.66 -1.398 c -0.72 -1.678 -0.295 -4.204 2.287 -2.746 c -1.318 -4.487 -2.448 -8.967 -5.01 -13.5 z m -1.834 27.5 c -0.003 0.069 -0.002 0.139 -0.008 0.207 c 0.005 -0.068 0.005 -0.138 0.008 -0.207 z m 3.668 0 c 0.003 0.069 0.003 0.139 0.008 0.207 c -0.005 -0.068 -0.005 -0.138 -0.008 -0.207 z m -3.709 0.465 c -0.015 0.111 -0.031 0.221 -0.055 0.328 c 0.023 -0.107 0.04 -0.217 0.055 -0.328 z m 3.75 0 c 0.015 0.111 0.032 0.221 0.055 0.328 c -0.023 -0.107 -0.04 -0.217 -0.055 -0.328 z m -3.873 0.582 c -0.032 0.106 -0.07 0.211 -0.113 0.313 c 0.043 -0.102 0.082 -0.206 0.113 -0.313 z m 3.996 0 c 0.032 0.107 0.07 0.21 0.113 0.313 c -0.043 -0.102 -0.081 -0.206 -0.113 -0.313 z m -4.207 0.527 c -0.06 0.114 -0.133 0.223 -0.211 0.33 c 0.078 -0.107 0.151 -0.216 0.211 -0.33 z m 4.418 0 c 0.06 0.114 0.133 0.223 0.211 0.33 c -0.078 -0.107 -0.151 -0.216 -0.211 -0.33 z m -4.748 0.492 c -0.132 0.153 -0.281 0.3 -0.461 0.434 c 0.18 -0.134 0.329 -0.28 0.461 -0.434 z m 5.078 0 c 0.132 0.154 0.281 0.3 0.461 0.434 c -0.18 -0.133 -0.329 -0.28 -0.461 -0.434 z" opacity="1" fill="#c5dbee" fill-rule="evenodd" stroke="none" fill-opacity="1"/><path d="m 24 8 c -1.16 3.756 -2.411 7.106 -3.523 11.08 c 1.232 0.122 1.352 1.89 0.803 3.17 c -0.646 1.506 -1.306 2.956 -2.217 2.797 c -0.394 2.02 -0.745 4.226 -1.031 6.729 c 0.612 -0.851 1.332 -1.669 2.334 -2.406 c 1.362 -1 1.475 0.061 1.635 1.635 c 0.034 0.332 0.068 0.666 0.102 1 l 3.797 0 c 0.033 -0.334 0.068 -0.668 0.102 -1 c 0.16 -1.573 0.272 -2.637 1.635 -1.635 c 0.991 0.729 1.705 1.536 2.313 2.377 c -0.49 -2.267 -0.92 -4.494 -1.35 -6.721 c -0.74 -0.201 -1.314 -1.464 -1.877 -2.775 c -0.526 -1.225 -0.437 -2.895 0.65 -3.145 c -0.801 -3.485 -1.809 -7.109 -3.371 -11.1 z" fill="#a8c8e1" fill-rule="evenodd" stroke="none" fill-opacity="1"/><path d="m 22.1 32 c 0.154 1.545 0.183 3.048 -1.102 4 l 1 1 l 4 0 l 1 -1 c -1.284 -0.952 -1.256 -2.455 -1.102 -4 l -3.797 0 z" opacity="1" fill="#c5904b" fill-rule="nonzero" stroke="none" fill-opacity="1"/><path d="m 24 33 c -0.333 0.667 -1 1.548 -1 2 0 1 0.536 1.01 1 1 0.464 -0.007 1 0 1 -1 0 -0.418 -0.667 -1.333 -1 -2 z" fill="#f393dc" fill-rule="evenodd" stroke="none" fill-opacity="1"/></svg>
